X:1
T:Title
%%score { ( 1 3 ) | ( 2 4 ) }
L:1/8
M:4/4
K:Eb
V:1 treble nm="Grand Piano"
V:3 treble 
V:2 bass 
V:4 bass 
V:1
 z4 z2[Q:1/4=106] [B,GB]>[B,FA] | [B,EG]2 [EGB]4 [B,FA]>[B,EG] | [B,DF]2 [B,FA]4 [B,EG]>[A,DF] | %3
 [G,E]2 [B,EG]2 [EGB]3 [B,EG] |[M:3/4] [B,DF]6 |[M:1/4] [B,GB]>[B,FA] | %6
[M:4/4] [B,EG]2 [B,GB]4 [C=EB]>[CEG] | [CGB]2 [CFA]4 [B,CG]>[A,CF] | [G,B,E]2 [EG]2 [DG]3 [DF] | %9
[M:3/4] E4 z2 |[M:1/4] (3GA[EGB] |[M:4/4] z2 [Ac]4 z2 | [Ac]2 [GB]4 (3[GB]AG | z2 d4 z2 | %14
 [DB]6 [GB]>[FA] | [B,EG]2 [B,GB]4 [C=EB]>[CEG] | [CGB]2 [CFA]4 [B,CG]>[A,CF] | %17
 [G,B,E]2 [B,EG]2 [B,DG]3 [A,DF] |[M:3/4] [G,E]4 z2 |] %19
V:2
 z4 z2 E,>E, | E,2 E,4 E,>E, | B,,2 B,,4 B,,>B,, | E,2 E,2 E,3 E, |[M:3/4] B,,6 |[M:1/4] B,,>B,, | %6
[M:4/4] E,2 E,4 C,>C, | F,2 F,4 A,,>A,, | B,,2 [B,,B,]2 [B,,B,]3 [B,,A,] |[M:3/4] [E,G,]4 z2 | %10
[M:1/4] (3[E,-B,-E][E,B,F]E, |[M:4/4] A,2 A,2 A,2[K:treble] (3:2:2[A,CA]2 [A,EA] | %12
 [E,E]2 [E,E]2 [E,E]2 (3[E,B,]-[E,B,F][E,B,E] | z2 F4 z2 | [B,,B,]6 [B,,B,]>[B,,B,] | %15
 E,2 E,4 C,>C, | F,2 F,4 A,,>A,, | B,,2 B,,2 B,,3 B,, |[M:3/4] E,4 z2 |] %19
V:3
 x8 | x8 | x8 | x8 |[M:3/4] x6 |[M:1/4] x2 |[M:4/4] x8 | x8 | x8 |[M:3/4] x6 |[M:1/4] x2 | %11
[M:4/4] [EAc]2 E2 E2 (3edc | x8 | F2 z2 B,2 (3edc | x8 | x8 | x8 | x8 |[M:3/4] x6 |] %19
V:4
 x8 | x8 | x8 | x8 |[M:3/4] x6 |[M:1/4] x2 |[M:4/4] x8 | x8 | x8 |[M:3/4] x6 |[M:1/4] x2 | %11
[M:4/4] x6[K:treble] x2 | x8 | [F,B,D]2 [F,B,]2 F,2 (3[F,-CF-][F,B,F][F,=A,E] | x8 | x8 | x8 | x8 | %18
[M:3/4] x6 |] %19

